packages/ffe-icons/icons/open/300/md/view_quilt.svg

<svg xmlns="http://www.w3.org/2000/svg" height="24" viewBox="0 -960 960 960" width="24"><path d="M140.001-292.309v-375.382q0-29.827 21.693-51.067 21.692-21.241 52.153-21.241h532.306q30.461 0 52.153 21.241 21.693 21.24 21.693 51.067v375.382q0 29.827-21.693 51.067-21.692 21.241-52.153 21.241H213.847q-30.461 0-52.153-21.241-21.693-21.24-21.693-51.067Zm265.306-217.69H760v-157.692q0-4.616-4.231-8.463-4.231-3.846-9.616-3.846H405.307v170.001ZM612.768-280h133.385q5.385 0 9.616-3.846 4.231-3.847 4.231-8.463v-157.692H612.768V-280Zm-207.461 0H552.77v-170.001H405.307V-280Zm-191.46 0h131.462v-400H213.847q-5.385 0-9.616 3.846-4.231 3.847-4.231 8.463v375.382q0 4.616 4.231 8.463 4.231 3.846 9.616 3.846Z"/></svg>

<svg xmlns="http://www.w3.org/2000/svg" height="24" viewBox="0 -960 960 960" width="24"><path d="M140-292.31v-375.38q0-29.83 21.69-51.07Q183.39-740 213.85-740h532.3q30.46 0 52.16 21.24Q820-697.52 820-667.69v375.38q0 29.83-21.69 51.07Q776.61-220 746.15-220h-532.3q-30.46 0-52.16-21.24Q140-262.48 140-292.31ZM405.31-510H760v-157.69q0-4.62-4.23-8.46-4.23-3.85-9.62-3.85H405.31v170Zm207.46 230h133.38q5.39 0 9.62-3.85 4.23-3.84 4.23-8.46V-450H612.77v170Zm-207.46 0h147.46v-170H405.31v170Zm-191.46 0h131.46v-400H213.85q-5.39 0-9.62 3.85-4.23 3.84-4.23 8.46v375.38q0 4.62 4.23 8.46 4.23 3.85 9.62 3.85Z"/></svg>
